X:1
T:James Gibb editions
T:Salve Regina - Bernabei
T:#
%%score [ 1 2 3 4 ]
L:1/8
Q:1/4=66
M:4/4
K:C
V:1 treble nm="Soprano" snm="S"
V:2 treble nm="Alto" snm="A"
V:3 treble-8 nm="Tenor" snm="T"
V:4 bass nm="Bass" snm="B"
V:1
"^moderato""^Ercole Bernabei\n(1622-87)"!p!"^Salve Regina" A2 AA ^G2"^," G2 | A2!<(! AA A3 A!<)! | %2
w: Sal- ve Re- gi- na,|ma- ter mi- se- ri-|
 !>!=G3 G"^," G4 |!p! A2 A!<(!A AABA!<)! |[M:4/4] ^GE (!>!A4!>(! G2) | A8!>)! | %6
w: cor- di- ae,|vi- ta, dul- ce- do et spes|no- stra, sal\- *|ve.|
 z!mf! A A>E A2 ^G2 | (AB/c/ d>)d"^," ^G4 | c>c d2!<(! (=G4-!<)! | G2 ^F2!>(! G4) | G8!>)! | %11
w: Ad te cla- ma- mus,|e\- * * * xu- les|fi- li- i E\-||vae.|
 z2!mf! ^G2 A2 B>B | E2"^," E>!p!E F2 D=G |!<(! G8!<)! |!>(! G4!>)! z4 | z2 z!p! G G2 G>G | %16
w: Ad te su- spi-|ra- mus, ge- men- tes et|flen-|tes|in hac la- cri-|
 G2 (F4 ED) |!<(! (^C2 D4 C2)!<)! |!>(! D8!>)! | z2!f! Ac c"^,"c c>c | _BF G2"^," A2!mf! cc | %21
w: ma- rum * *|val\- * *|le.|E- ja er- go, ad- vo-|ca- ta no- stra, il- los|
 _B2"^," BB A>A AA | (DE F4) E2 |"^," F4 c2 _B2- | B2 A2 G4 | A8 | z2!p! A2 A2 A2 | %27
w: tu- os mi- se- ri- cor- des|o\- * * cu-|los ad nos|* con- ver\--|te.|Et Je- sum,|
!<(! A>A AA _BB!<)!!mf! B (A/G/) |!>(! A4"^," G4!>)! | G2 GE G2 A2 |!<(! G>G GG!<)! !>!G4 | %31
w: be- ne- di- ctum fru- ctum ven- tris *|tu- i,|no- bis post hoc e-|xi- li- um o- sten-|
"^,"!>(! G8!>)! ||"^più lento"!pp![Q:1/4=60] ^G4!<(! (A3 B!<)! |!>(! c2) B2!>)! z4 | %34
w: de.|O cle\- *|* mens,|
!pp! A2!<(! (A4!<)!!>(! =G2) | A4!>)! z4 |[Q:1/4=66] z!mp! AGF E2 F>F | E8 | %38
w: o pi\- *|a,|o dul- cis vir- go Ma-|ri-|
 E2"^più lento"[Q:1/4=60] z!mf! A AA B2 | ^GE (A4!>(! G2) | !fermata!A8!>)! |] %41
w: a, o dul- cis vir-|go Ma- ri\- *|a.|
V:2
!p! E2 EE E2"^," E2 | E2!<(! EE D3 D!<)! | !>!D3 D"^," E4 |!p! E2 E!<(!E FFFF!<)! | %4
w: Sal- ve Re- gi- na,|ma- ter mi- se\-- ri-|cor- di- ae,|vi- ta, dul- ce- do et spes|
[M:4/4] E3 E!>(! !>!E4 | E8!>)! | z!mf! EEA EA, E2- | E2 D2"^," E4 | F3 F E2!<(! (E2-!<)! | %9
w: no- stra, sal-|ve.|Ad te cla- ma- mus, e\-|* xu- les|fi- li- i E\-|
 E2 DC!>(! D4) | E8!>)! | z2!mf! E2 E2 D>D | D2"^," C>!p!C C2 B,D |!<(! (E!<(!FGF E4)!<)!!<)! | %14
w: |vae.|Ad te su- spi-|ra- mus, ge- men- tes et|flen\- * * * *|
!>(! D4!>)! z4 | z2 z!p! D D2 D>D | EA, A3 G!<(! G2- | G2 F2 E4!<)! |!>(! ^F8!>)! | %19
w: tes|in hac la- cri-|ma- rum, la- cri- ma\-|* rum val-|le.|
 z2!f! =F>G A"^,"G G>A | FF (F>E)"^," F2!mf! FF | F2"^," GG E>E DD | (FE DE/F/ G3) G | %23
w: E- ja er- go, ad- vo-|ca- ta no\- * stra, il- los|tu- os mi- se- ri- cor- des|o\- * * * * * cu-|
"^," C2 C4 F2 | E2 (F4 E2) | F8 | z2!p! E2 F2 F2 |!<(! ^F>F FF GG!<)!!mf!EE | %28
w: los ad nos|con- ver\- *|te.|Et Je- sum,|be- ne- di- ctum fru- ctum ven- tris|
!>(! !courtesy!=F6"^," E2!>)! | E2 EG E2 D2 |!<(! D>D CE!<)! !>!D4 |"^,"!>(! E8!>)! || %32
w: tu- i,|no- bis post hoc e-|xi- li- um o- sten-|de.|
!pp! E2!<(! (E4 D2)!<)! |!>(! E4!>)! z4 |!pp! E2!<(! (F3 E!<)! D2- |!>(! D2) ^C2!>)! z4 | %36
w: O cle\- *|mens,|o pi\- * *|* a,|
 z4 z!mp! EDC | B,2 C>A, B,4 |"^," A,!mf!EEE F4 | E2 E2!>(! E4 | !fermata!E8!>)! |] %41
w: o dul- cis|vir- go Ma- ri-|a, o dul- cis vir-|go Ma- ri-|a.|
V:3
!p! c2 cc B2"^," B2 | c2!<(! cc cA!<)! !>!c2- | c2 B2"^," c4 |!p! ^c2 c!<(!c- dddd!<)! | %4
w: Sal- ve Re- gi- na,|ma- ter mi- se- ri- cor\-|* di- ae,|vi- ta, dul- ce- do et spes|
[M:4/4][K:treble-8] d2 !courtesy!=c2!>(! !>!B4 | c8!>)! | z!mf! e!courtesy!=cA c3 B | %7
w: no- stra, sal-|ve.|Ad te cla- ma- mus,|
 A3 A"^," B2 e2- | e>e d4!<(! (cB/A/!<)! | B2 c4!>(! B2) | c8!>)! | z2!mf! B2 c2 ^G>G | %12
w: e- xu- les fi\-|* li- i E- * *||vae.|Ad te su- spi-|
 A2"^," A>!p!A A2 =GB |!<(! (c2 d3 c/B/ c2-!<)! |!>(! c2 B2!>)! z4 | z2 z!p! _B B2 B>B | %16
w: ra- mus, ge- men- tes et|flen\- * * * *|* tes|in hac la- cri-|
 (A3 G/F/ _B2)!<(! B2 | A8!<)! |!>(! A8!>)! | z2!f! A>G F"^,"E e>f | dc _B2"^," c2!mf! AA | %21
w: ma\- * * * rum|val-|le.|E- ja er- go, ad- vo-|ca- ta no- stra, il- los|
 A2"^," GG G>G FF | _Bcdc B3) B |"^," A2 A2 G2 F2 | c8 | c8 | z2!p! ^c2 d2 d2 | %27
w: tu- os mi- se- ri- cor- des|o\- * * * * cu-|los ad nos con-|ver-|te.|Et Je- sum,|
!<(! d>d dd dd!<)!!mf!!courtesy!=cc |!>(! c4"^," c4!>)! | c2 cc c3 c |!<(! B>B Gc!<)! (c2 B2) | %31
w: be- ne- di- ctum fru- ctum ven- tris|tu- i,|no- bis post hoc e-|xi- li- um o- sten\- *|
"^,"!>(! c8!>)! ||!pp!!<(! (B2 c3 B A2-!<)! |!>(! A2) ^G2!>)! z4 |!pp!!<(! ^c4 (d3!<)!!>(! e | %35
w: de.|O cle\- * *|* mens,|o pi\- *|
 f2) e2!>)! z4 | z4 z!mp! cBA | ^G^F/G/ (A4 G2) |"^," A!mf!^ccc d4 | B2 =c2!>(! B4 | %40
w: * a,|o dul- cis|vir- go Ma- ri\- *|ra, o dul- cis vir-|go Ma- ri-|
 !fermata!^c8!>)! |] %41
w: a.|
V:4
!p! A,,2 A,,A,, E,2"^," E,2 | A,2!<(! A,A, F,3 ^F,!<)! | !>!G,3 G,"^," C,4 | %3
w: Sal- ve Re- gi- na,|ma- ter mi- se- ri-|cor- di- ae,|
!p! A,,2 A,,!<(!A,, D,D,D,D,!<)! |[M:4/4] E,2 A,,2!>(! !>!E,4 | A,,8!>)! | z!mf! A,A,C A,2 E,2 | %7
w: vi- ta, dul- ce- do et spes|no- stra, sal-|ve.|Ad te cla- ma- mus,|
 F,3 F,"^," E,4 | A,>A, B,2 (C!<(!C,E,F,!<)! | G,2 A,2!>(! G,4) | C,8!>)! | %11
w: e- xu- les|fi- li- i E\- * * *||vae.|
 z2!mf! E,2 C,2 B,,>B,, | A,,2"^," A,,!p!A, D,2 G,G,, |!<(! (C,2 B,,2 C,4)!<)! |!>(! G,,4!>)! z4 | %15
w: Ad te su- spi-|ra- mus, ge- men- tes et|flen\- * *|tes|
 z2 z!p! G, G,2 G,>G, | ^C,2 D,2!<(! (G,,4 | A,,8)!<)! |!>(! D,8!>)! | z2!f! F,>E, F,"^,"C, C>A, | %20
w: in hac la- cri-|ma- rum val\-||le.|E- ja er- go, ad- vo-|
 _B,A, G,2"^," F,2!mf! F,F, | D,2"^," E,E, ^C,>C, D,D, | (_B,,3 A,, G,,3) G,, | %23
w: ca- ta no- stra, il- los|tu- os mi- se- ri- cor- des|o\- * * cu-|
"^," F,,2 F,2 E,2 D,2 | C,8 | F,,8 | z2!p! A,,2 D,2 D,2 |!<(! D,>D, D,D, G,G,!<)!!mf!C,C, | %28
w: los ad nos .~con-|ver-|te.|Et Je- sum,|be- ne- di- ctum fru- ctum ven- tris|
!>(! F,4"^," C,4!>)! | C,2 C,C, E,2 ^F,2 |!<(! G,>G, E,C,!<)! (G,2 G,,2) |"^,"!>(! C,8!>)! || %32
w: tu- i,|no- bis post hoc e-|xi- li- um o- sten\- *|de.|
!pp! E,4!<(! F,4!<)! |!>(! E,4!>)! z4 |!pp!!<(! A,4!<)! _B,4 |!>(! A,4!>)! z4 | %36
w: O cle-|mens,|o pi-|a,|
 z!mp! F,E,D, C,2 D,2 | E,2 A,,A,, E,,4 |"^," A,,!mf!A,,A,,A,, D,4- | D,2 C,D,!>(! E,4 | %40
w: o dul- cis vir- go,|vir- go Ma- ri-|a, o dul- cis vir\-|* go Ma- ri-|
 !fermata!A,,8!>)! |] %41
w: a.|

